packages/core/src/svgs/crpt.svg

<svg width="24" height="24" viewBox="0 0 24 24" fill="none" xmlns="http://www.w3.org/2000/svg">
<g clip-path="url(#clip0_31_8752)">
<path d="M0 0H24V24H0V0Z" fill="#2992FB"/>
<path d="M15.5223 8.10321C14.6425 7.35414 13.5236 6.9446 12.3681 6.94864C11.1002 6.96084 9.88424 7.45371 8.9657 8.3277C8.04716 9.20169 7.49451 10.3917 7.41934 11.6574H6.90505C6.97375 10.2518 7.57833 8.92591 8.59452 7.95237C9.6107 6.97884 10.9612 6.43162 12.3685 6.42321C13.6542 6.42321 14.8829 6.89721 15.8828 7.73721L15.5223 8.10321ZM15.3453 9.82864C15.0086 9.35344 14.5633 8.96553 14.0464 8.69717C13.5295 8.42881 12.956 8.28777 12.3736 8.28578C11.3951 8.29337 10.4594 8.68861 9.77173 9.38487C9.08407 10.0811 8.70049 11.0216 8.70505 12.0002C8.69465 12.9822 9.07469 13.9282 9.7616 14.63C10.4485 15.3319 11.386 15.7322 12.3681 15.7429C12.9507 15.7426 13.5247 15.6023 14.0418 15.3338C14.5589 15.0653 15.0039 14.6765 15.3393 14.2001L15.7053 14.5661C15.3213 15.0914 14.8192 15.5192 14.2395 15.815C13.6599 16.1107 13.0188 16.2662 12.3681 16.2688C11.2496 16.2536 10.1827 15.796 9.40087 14.9959C8.61908 14.1959 8.18612 13.1187 8.19677 12.0002C8.1907 10.8857 8.62605 9.81415 9.40767 9.01968C10.1893 8.22522 11.2536 7.77245 12.3681 7.76035C13.0189 7.76242 13.6601 7.91763 14.2399 8.21343C14.8197 8.50923 15.3217 8.93731 15.7053 9.46307L15.3453 9.82864ZM15.9338 8.49149L16.2938 8.12592C16.4193 8.25749 16.5222 8.38864 16.6251 8.52021L16.2651 8.88578C16.1622 8.74864 16.0516 8.61664 15.9338 8.49149ZM12.3453 17.6004C10.9381 17.5918 9.58761 17.0445 8.57151 16.0709C7.5554 15.0973 6.95092 13.7714 6.88234 12.3658H7.39662C7.47043 13.6324 8.0225 14.8238 8.94117 15.699C9.85985 16.5741 11.0766 17.0678 12.3453 17.0801C13.4995 17.0801 14.6022 16.6802 15.4996 15.9259L15.8596 16.2915C14.8822 17.1343 13.6359 17.6004 12.3453 17.6059V17.6004ZM15.9338 15.5316C16.0593 15.4001 16.1622 15.2745 16.2651 15.1429L16.6251 15.5089C16.5222 15.6401 16.4193 15.7661 16.2938 15.8972L15.9338 15.5316ZM6.16234 12.0002C6.15009 13.6614 6.79598 15.2599 7.95884 16.4463C9.12169 17.6327 10.7069 18.3105 12.3681 18.3315C14.2139 18.3315 15.9565 17.5202 17.1393 16.0288L17.4993 16.3944C16.8834 17.1632 16.1025 17.7838 15.2144 18.2101C14.3262 18.6364 13.3536 18.8576 12.3685 18.8574C8.65405 18.8574 5.65405 15.7716 5.65405 12.0002C5.65405 8.20607 8.68277 5.14307 12.3685 5.14307C14.3455 5.14307 16.2201 6.03449 17.4998 7.60007L17.1398 7.97164C16.568 7.2546 15.8424 6.67533 15.0165 6.27673C14.1905 5.87813 13.2855 5.6704 12.3685 5.66892C10.7083 5.69129 9.12433 6.36967 7.96258 7.55591C6.80083 8.74215 6.15565 10.3399 6.16791 12.0002H6.16234Z" fill="white"/>
</g>
<defs>
<clipPath id="clip0_31_8752">
<rect width="24" height="24" fill="white"/>
</clipPath>
</defs>
</svg>

<svg xmlns="http://www.w3.org/2000/svg" width="24" height="24" fill="none" viewBox="0 0 24 24"><g clip-path="url(#a)"><path fill="#2992FB" d="M0 0h24v24H0z"/><path fill="#fff" d="M15.522 8.103a4.84 4.84 0 0 0-3.154-1.154 5.006 5.006 0 0 0-4.949 4.708h-.514a5.503 5.503 0 0 1 5.463-5.234c1.286 0 2.515.474 3.515 1.314zm-.177 1.726a3.66 3.66 0 0 0-2.971-1.543A3.697 3.697 0 0 0 8.705 12a3.704 3.704 0 0 0 3.663 3.743A3.64 3.64 0 0 0 15.34 14.2l.366.366a4.16 4.16 0 0 1-3.337 1.703A4.23 4.23 0 0 1 8.197 12a4.217 4.217 0 0 1 4.171-4.24 4.15 4.15 0 0 1 3.337 1.703zm.589-1.338.36-.365c.125.131.228.263.331.394l-.36.366a5 5 0 0 0-.331-.395m-3.589 9.11a5.503 5.503 0 0 1-5.463-5.235h.515a5.006 5.006 0 0 0 4.948 4.714 4.87 4.87 0 0 0 3.155-1.154l.36.365a5.42 5.42 0 0 1-3.515 1.315zm3.589-2.07c.125-.13.228-.257.331-.388l.36.366a5 5 0 0 1-.331.388zm-9.772-3.53a6.285 6.285 0 0 0 6.206 6.33 6.04 6.04 0 0 0 4.771-2.302l.36.365a6.57 6.57 0 0 1-5.13 2.463c-3.715 0-6.715-3.085-6.715-6.857 0-3.794 3.029-6.857 6.714-6.857 1.977 0 3.852.891 5.132 2.457l-.36.372a6.12 6.12 0 0 0-4.772-2.303A6.286 6.286 0 0 0 6.168 12z"/></g><defs><clipPath id="a"><path fill="#fff" d="M0 0h24v24H0z"/></clipPath></defs></svg>
